X: 30465
T: Old Wheels Of The World, The
R: reel
M: 4/4
K: Gmajor
eA~A2 EABA|~G2GA GED2|EGAB cBcd|efge d2^cd:|
eg~g2 eg~g2|ea~a2 ea~a2|eg~g2 eg~g2|aege d2Bd|
eg~g2 eg~g2|ea~a2 eaag|e2ed ^cdeg|aege d2Bd||

